X: 374
T: Yunshu duizhang jiangjieshi
L: 1/8
M: 3/4
K: F
c c =B c [I:setbarnb 1]| 
zd2AG2 | 
[M:2/4]c c =B c | 
[M:3/4]zd2AG2 | 
[M:2/4]f d f d | 
c f B A | 
G F _E F | 
zB2DC2 |]

@@@ Tune index: 9248
